X:1
T:Title
%%score { ( 1 3 5 ) | ( 2 4 ) }
L:1/8
M:4/4
K:Eb
V:1 treble nm="Grand Piano"
V:3 treble 
V:5 treble 
V:2 treble 
V:4 treble 
V:1
 z8[Q:1/4=116] | [G,B,E]2 [B,DF]2 [B,EG]2 [B,DAB]2 | e6 z2 | [G,B,E]2 [B,DF]2 [B,EG]2 [B,DAB]2 | %4
 e6 z2 | [Ad]2 [B,DFA]2 [Ad]2 [B,DFA]2 | [Ad]4 z4 | [Gc]2 [B,EGB]2 G2 A2 | c2 B2 G2 F2 | %9
 E2 F2 G2 B2 | e6 z2 | F2 G2 A2 c2 | f6 z2 | d2 B2 [Ac]2 [Bd]2 | [EBe]2 E2 F2 A2 | G4[K:bass] z4 | %16
 [G,B,E]6 z2 | e4 e4 | d8 | [B,Ac]4 [B,-c]3 [B,F] | B8 | c2 e2 B2 G2 | A2 [FB]2 G2 E2 | %23
 F2 =A2 c2 e2 | d2 B2 A2- [Ad]2 | e3[K:bass][K:treble] f e3[K:bass][K:treble] c | %26
 d2- [Ad-]2 [Ad]4 | [B,Ac]4 [B,-c]3 [B,A] | B8 | c2 e2 d2 c2 | B2 c2 d2 e2 | G4 [DF]4 | %32
[M:3/4] E6 |] %33
V:2
 z4 z2 GF | E,2 B,,2 E,2 F,2 | G,2 F,2 E,2[K:treble] GF | E,2 B,,2 E,2 F,2 | %4
 G,2 F,2 z2[K:treble] ce | F,2 A,2 B,,2 A,2 | F,2 A,2 B,,2 [A,B,D]2 | E,2 G,2 G,2 A,2 | %8
 C2 B,2 G,2 F,2 | [E,G,B,]2 [B,,B,]2 [E,B,]2 [F,B,]2 | [G,E]2 [F,B,]2 [E,B,]4 | %11
 [A,CE]2 [A,B,E]2 [A,CF]2 [A,CFA]2 | [FAc]2- [F,F-A-c-]2 [A,FAc]2 [=A,CF]2 | %13
 F2 [A,DF]2 B,2- [A,B,F]2 | [G,B,]4 [CE]2 [CF]2 | [B,E]4 C,2 D,2 | E,2 B,,2 E,,2[K:treble] (3Bcd | %17
 B,4 B,4 | z4 B,4 | D,2 z[K:treble] d[K:bass] D,2 A,2 | [G,B,E]2 [F,D]2 [E,E]2 [G,B,]2 | %21
 [A,E]2 [A,CE]2 [G,E]2 [=E,B,_D]2 | [F,B,D]2 [D,B,]2 [E,B,E]2 [G,B,]2 | %23
 [F,=A,E]2 [F,CE]2[K:treble] [A,EF]2 [G,CF]2 | [B,F]2[K:bass] [A,B,D]2 F,2 B,2 | B,4 B,4 | %26
 F,2 z2 B,4 | D,2 z[K:treble] d[K:bass] D,2 A,2 | [G,B,E]2 [F,D]2 [E,E]2 [G,B,]2 | %29
 [A,E]2 [A,CE]2 [=A,C_G]2 [A,EG]2 | [B,EG]2 [=A,EF]2 [_A,B,F]2[K:bass] [G,B,E]2 | [B,E]4 [B,,A,]4 | %32
[M:3/4] [E,G,]6 |] %33
V:3
 x8 | x8 | [EB]2 [B,A]2 [B,G]2 z2 | x8 | [EB]2 [B,A]2 [B,G]4 | x8 | z2 [B,D]2 [Ac]2 [Ad]2 | x8 | %8
 x8 | x8 | B2 A2 z2 BG | x8 | z2 C2 C2 ec | x8 | x8 | z2[K:bass] B,,2 [A,B,F]4 | x8 | %17
 G3- [Gf] G3- [Gc] | A2 A2 A4 | z4 A2 D2 | z2 A2 G2 E2 | x8 | x8 | x8 | z4 [Dc]2 z2 | %25
 G4[K:bass][K:treble] G4[K:bass][K:treble] | A2 z2 z4 | z4 A2 D2 | z2 A2 G2 E2 | x8 | x8 | x8 | %32
[M:3/4] x6 |] %33
V:4
 x8 | x8 | x6[K:treble] x2 | x8 | z4 E,4[K:treble] | x8 | x8 | x8 | x8 | x8 | x8 | x8 | C2 z2 z4 | %13
 B,4 [F,D]2 z2 | z4 A,4 | x8 | x6[K:treble] x2 | E,2 z2 E,2 z2 | [F,B,]2 [B,,B,]2 z2 B,,2 | %19
 z2 B,,2[K:treble][K:bass] z4 | x8 | x8 | x8 | x4[K:treble] x4 | x2[K:bass] x6 | E,2 z2 E,2 z2 | %26
 B,2- [B,,B,]2 z2 B,,2 | z2 B,,2[K:treble][K:bass] z4 | x8 | x8 | x6[K:bass] x2 | x8 |[M:3/4] x6 |] %33
V:5
 x8 | x8 | x8 | x8 | x8 | x8 | x8 | x8 | x8 | x8 | z4 G4 | x8 | x8 | x8 | x8 | x2[K:bass] x6 | x8 | %17
 z2 B,,2 z2 B,,2 | x8 | x8 | x8 | x8 | x8 | x8 | x8 | %25
 z2[K:bass] B,,2[K:treble] z2[K:bass] B,,2[K:treble] | x8 | x8 | x8 | x8 | x8 | x8 |[M:3/4] x6 |] %33

